app/img/main/ic_support.svg

<svg width="89" height="79" viewBox="0 0 89 79" fill="none" xmlns="http://www.w3.org/2000/svg">
    <rect width="89" height="79" rx="20" fill="url(#paint0_linear)"/>
    <rect x="0.5" y="0.5" width="88" height="78" rx="19.5" stroke="#FAFAFA" stroke-opacity="0.1"/>
    <path d="M64.4546 36.2807H62.5336C62.3415 35.7044 62.1014 35.08 61.8132 34.5518L63.1579 33.207C63.7823 32.6307 64.1185 31.8623 64.1185 30.9979C64.1185 30.1334 63.7823 29.317 63.206 28.7407L58.8356 24.3703C57.587 23.1697 55.6659 23.1697 54.4173 24.4184L53.0245 25.8111C52.4482 25.571 51.8719 25.3308 51.2956 25.0907V23.1697C51.2956 21.4408 49.9029 20 48.1259 20H42.0267C40.2978 20 38.857 21.3927 38.857 23.1697V25.0907C38.2326 25.2828 37.6563 25.5229 37.1281 25.8111L35.7833 24.4664C34.5827 23.2657 32.5176 23.2657 31.317 24.4664L26.9947 28.7887C25.794 30.0374 25.794 32.0064 26.9947 33.2551L29.2519 35.5123C29.9242 36.1846 31.0288 36.1846 31.7012 35.5123C32.3735 34.8399 32.3735 33.7353 31.7012 33.063L29.6841 31.0459L33.5742 27.2038L35.5912 29.2209C36.1675 29.7972 36.984 29.8933 37.6563 29.5091C38.6649 28.9328 39.7695 28.4525 41.0662 28.0683C41.7865 27.8282 42.3148 27.1558 42.3148 26.3874V23.5059H47.7897V26.3874C47.7897 27.1558 48.318 27.8762 49.0864 28.0683C50.3351 28.4045 51.4877 28.8847 52.4963 29.461C53.1686 29.8453 54.0331 29.7492 54.5614 29.1729L56.5784 27.1558L60.4685 31.0459L58.4514 33.111C57.9232 33.6873 57.7791 34.5037 58.1633 35.1761C58.7396 36.1846 59.2198 37.3372 59.556 38.5859C59.7481 39.3543 60.4685 39.8826 61.2369 39.8826H64.1185V45.3575H61.2369C60.4685 45.3575 59.7481 45.8858 59.556 46.6542C59.2198 47.9029 58.7396 49.0555 58.1633 50.064C57.7791 50.7364 57.8751 51.6009 58.4514 52.1772L60.5165 54.1942L56.6265 58.0843L54.6094 56.0192C54.0331 55.4429 53.2166 55.3469 52.4963 55.7311C51.4397 56.3554 50.2871 56.8356 49.0864 57.1238C48.318 57.3159 47.7897 58.0363 47.7897 58.8047V61.6862H42.4109V58.8527C42.4109 58.0843 41.8826 57.3639 41.1142 57.1718C39.9135 56.8356 38.7609 56.3554 37.7044 55.7791C37.032 55.3949 36.1675 55.4909 35.6393 56.0672L33.6222 58.0843L29.7801 54.2423L31.7972 52.2252C32.4696 51.5528 32.4696 50.4482 31.7972 49.7759C31.1249 49.1035 30.0203 49.1035 29.3479 49.7759L27.0427 51.889C25.842 53.1377 25.842 55.0587 27.0907 56.3074L31.413 60.6297C31.9893 61.206 32.7577 61.5422 33.6702 61.5422C34.5347 61.5422 35.3031 61.206 35.8314 60.6297L37.2241 59.2369C37.8004 59.5251 38.3767 59.7652 38.953 59.9573V61.8783C38.953 63.6073 40.3458 65 42.1227 65H48.27C49.9989 65 51.3917 63.6073 51.3917 61.8783V59.9093C51.968 59.7172 52.5443 59.4771 53.1206 59.1889L54.5133 60.5816C55.714 61.7343 57.731 61.7343 58.9797 60.5336L63.35 56.1633C64.5027 54.9626 64.5027 52.9456 63.302 51.6969L61.9573 50.3522C62.1974 49.7759 62.4376 49.2476 62.6777 48.6233H64.5987C66.3276 48.6233 67.7684 47.2305 67.7684 45.4536V39.4504C67.6243 37.7215 66.2316 36.2807 64.4546 36.2807Z"
          fill="white"/>
    <path d="M42.3629 48.0471C41.6905 48.7195 41.6905 49.8241 42.3629 50.4964C42.699 50.8326 43.1313 51.0247 43.6115 51.0247C44.0438 51.0247 44.524 50.8326 44.8602 50.4964L51.5838 43.7729C52.2561 43.1005 52.2561 41.9959 51.5838 41.3236L44.8602 34.6C44.1878 33.9276 43.0832 33.9276 42.4109 34.6C41.7385 35.2723 41.7385 36.3769 42.4109 37.0493L46.2049 40.8433H23.7289C22.7684 40.8433 22 41.6117 22 42.5722C22 43.5327 22.7684 44.3011 23.7289 44.3011H46.1089L42.3629 48.0471Z"
          fill="#022AF0"/>
    <defs>
        <linearGradient id="paint0_linear" x1="30" y1="13" x2="105" y2="99" gradientUnits="userSpaceOnUse">
            <stop stop-color="#5DD4E8"/>
            <stop offset="1" stop-color="#76F3B5"/>
        </linearGradient>
    </defs>
</svg>

<svg width="89" height="79" fill="none" xmlns="http://www.w3.org/2000/svg"><rect width="89" height="79" rx="20" fill="url(#a)"/><rect x=".5" y=".5" width="88" height="78" rx="19.5" stroke="#FAFAFA" stroke-opacity=".1"/><path d="M64.455 36.28h-1.921c-.192-.576-.433-1.2-.72-1.728l1.344-1.345c.624-.576.96-1.345.96-2.21 0-.864-.336-1.68-.912-2.256l-4.37-4.37a3.116 3.116 0 0 0-4.419.047l-1.392 1.393-1.73-.72V23.17a3.167 3.167 0 0 0-3.17-3.17h-6.098a3.167 3.167 0 0 0-3.17 3.17v1.92c-.624.193-1.2.433-1.729.721l-1.345-1.345c-1.2-1.2-3.265-1.2-4.466 0l-4.322 4.323a3.22 3.22 0 0 0 0 4.466l2.257 2.257a1.74 1.74 0 0 0 2.45 0 1.74 1.74 0 0 0 0-2.449l-2.018-2.017 3.89-3.842 2.017 2.017c.576.576 1.393.672 2.065.288a15.832 15.832 0 0 1 3.41-1.44c.72-.24 1.249-.913 1.249-1.682v-2.881h5.475v2.881c0 .769.528 1.49 1.296 1.681 1.25.336 2.402.817 3.41 1.393.673.384 1.537.288 2.065-.288l2.017-2.017 3.89 3.89-2.017 2.065c-.528.576-.672 1.393-.288 2.065a14.492 14.492 0 0 1 1.393 3.41c.192.768.913 1.297 1.68 1.297h2.883v5.474h-2.882c-.769 0-1.489.529-1.681 1.297a14.492 14.492 0 0 1-1.393 3.41 1.752 1.752 0 0 0 .288 2.113l2.066 2.017-3.89 3.89-2.018-2.065c-.576-.576-1.392-.672-2.113-.288a12.437 12.437 0 0 1-3.41 1.393c-.768.192-1.296.912-1.296 1.68v2.882h-5.38v-2.833c0-.769-.527-1.49-1.296-1.681a16.388 16.388 0 0 1-3.41-1.393c-.672-.384-1.537-.288-2.065.288l-2.017 2.017-3.842-3.842 2.017-2.017a1.74 1.74 0 0 0 0-2.45 1.74 1.74 0 0 0-2.45 0l-2.304 2.114a3.116 3.116 0 0 0 .048 4.418l4.322 4.323c.576.576 1.345.912 2.257.912.865 0 1.633-.336 2.161-.912l1.393-1.393c.576.288 1.153.528 1.729.72v1.921c0 1.73 1.393 3.122 3.17 3.122h6.147a3.115 3.115 0 0 0 3.122-3.122V59.91a13.196 13.196 0 0 0 1.729-.72l1.392 1.393c1.201 1.152 3.218 1.152 4.467-.048l4.37-4.37c1.153-1.201 1.153-3.218-.048-4.467l-1.345-1.345c.24-.576.48-1.104.72-1.729H64.6a3.167 3.167 0 0 0 3.17-3.17V39.45c-.145-1.729-1.537-3.17-3.314-3.17Z" fill="#fff"/><path d="M42.363 48.047a1.74 1.74 0 0 0 0 2.45c.336.336.768.528 1.248.528a1.83 1.83 0 0 0 1.25-.529l6.723-6.723a1.74 1.74 0 0 0 0-2.45L44.86 34.6a1.74 1.74 0 0 0-2.45 0 1.74 1.74 0 0 0 0 2.45l3.795 3.793H23.729c-.96 0-1.729.769-1.729 1.73 0 .96.768 1.728 1.729 1.728h22.38l-3.746 3.746Z" fill="#022AF0"/><defs><linearGradient id="a" x1="30" y1="13" x2="105" y2="99" gradientUnits="userSpaceOnUse"><stop stop-color="#5DD4E8"/><stop offset="1" stop-color="#76F3B5"/></linearGradient></defs></svg>
